assets/images/script/m-4-bot.svg

<svg fill="none" height="242" viewBox="0 0 238 242" width="238" xmlns="http://www.w3.org/2000/svg"><path d="m128.636 3.88049c-.61-4.875838-110.294 6.03521-121.74128 6.98911-8.69774.7248.99212 1.7774 5.36378 5.6889 31.9591 28.595 47.6135 56.4743 60.9518 95.9645 8.3614 24.755 13.0619 50.27 14.8723 76.311 1.0157 14.611 4.0772 29.385-5.12 42.355-15.3492 21.647-35.5783-6.546-37.0587-20.493-3.3009-31.099 25.7316-54.409 46.9735-72.167 30.8726-25.81 60.6166-38.5826 74.1176-78.1526 4.957-14.5298 2.831-25.5542 1.219-40.0656-.846-7.6147 4.041 14.9334 4.226 22.5928.875 36.3377.657 61.9964-.732 98.3074-.794 20.78-1.143 35.761-2.763 56.495-.925 11.843-2.358 24.189-8.777 34.459-9.549 15.278-12.983 1.569-15.278-10.728-5.148-27.578 9.49-54.142 27.144-74.7 10.125-11.792 22.918-21 35.92-29.338 8.873-5.69 19.255-10.922 25.519-19.7487 4.071-5.7371-1.775-8.3707-6.827-8.3707" stroke="#000" stroke-linecap="round" stroke-width="5"/></svg>

<svg width="238" height="242" viewBox="0 0 238 242" fill="none" xmlns="http://www.w3.org/2000/svg">
<path d="M128.636 3.88049C128.026 -0.995348 18.342 9.9157 6.89472 10.8696C-1.80302 11.5944 7.88684 12.647 12.2585 16.5585C44.2176 45.1535 59.872 73.0328 73.2103 112.523C81.5717 137.278 86.2722 162.793 88.0826 188.834C89.0983 203.445 92.1598 218.219 82.9626 231.189C67.6134 252.836 47.3843 224.643 45.9039 210.696C42.603 179.597 71.6355 156.287 92.8774 138.529C123.75 112.719 153.494 99.9464 166.995 60.3764C171.952 45.8466 169.826 34.8222 168.214 20.3108C167.368 12.6961 172.255 35.2442 172.44 42.9036C173.315 79.2413 173.097 104.9 171.708 141.211C170.914 161.991 170.565 176.972 168.945 197.706C168.02 209.549 166.587 221.895 160.168 232.165C150.619 247.443 147.185 233.734 144.89 221.437C139.742 193.859 154.38 167.295 172.034 146.737C182.159 134.945 194.952 125.737 207.954 117.399C216.827 111.709 227.209 106.477 233.473 97.6503C237.544 91.9132 231.698 89.2796 226.646 89.2796" stroke="black" stroke-width="5" stroke-linecap="round"/>
</svg>
